X:1
T:[ID 3-17]
T:[ID 3-17]
T:Bezeichnung standardisiert: Gigue Gieque 11.
T:Urheber unbekannt Datum in der hier transkribierten schriftlichen Quelle: 1767
C:Urheber unbekannt
C:Datum in der hier transkribierten schriftlichen Quelle: 1767
%%score 1 2
L:1/8
M:6/8
K:D
V:1 treble nm="Primo"
V:2 treble nm="Secondo"
V:1
 A | dfa cea | dfa A2 B | AGF GFE | FGA D2 f | edc dcB | cBA e2 d | cBA BA^G | Ace A2 :: A | %10
 efe efd | cde A2 A | aba abg | fga d2 A | dfa cea | dfa a2 g | fed edc | dfa d2 :| %18
V:2
 !fermata!A | d2 d c2 c | def F2 g | fed edc | def f2 d | cBA BA^G | ABc c2 B | AEA ^GAB | %8
 ecA A2 :: A | cdc cdB | ABc A2 A | fgf fge | def F2 A | d2 d c2 c | def f2 d | dAF GFE | FGd F2 :| %18

